X: 40345
T: Tom Byrne's
R: reel
M: 4/4
K: Fmajor
|:E|F z CE FGAB|cAGF EDCD|EGCD EFGA|BAGF EDCE|
F z CE FGAB|cAGF EDCD|EGCD EFGA|BGEG F3:|
|:e|f2 cf Afcf|agfe dcBA|g2 dg Bgdg|bagf ecde|
f2 cf Afcf|agfe dcBG|EGCD EFGA|BGEG F3:|

